packages/devextreme-scss/images/icons/fluent/cardcontent.svg

<svg width="20" height="20" viewBox="0 0 20 20" fill="none" xmlns="http://www.w3.org/2000/svg">
<path fill-rule="evenodd" clip-rule="evenodd" d="M3.75 3C2.7835 3 2 3.7835 2 4.75V14.25C2 15.2165 2.7835 16 3.75 16H16.25C17.2165 16 18 15.2165 18 14.25V4.75C18 3.7835 17.2165 3 16.25 3H3.75ZM3 4.75C3 4.33579 3.33579 4 3.75 4H16.25C16.6642 4 17 4.33579 17 4.75V14.25C17 14.6642 16.6642 15 16.25 15H3.75C3.33579 15 3 14.6642 3 14.25V4.75ZM4 8C4 7.44772 4.44772 7 5 7H8C8.55228 7 9 7.44772 9 8V11C9 11.5523 8.55228 12 8 12H5C4.44772 12 4 11.5523 4 11V8ZM10 7.5C10 7.22386 10.2239 7 10.5 7H15.5C15.7761 7 16 7.22386 16 7.5C16 7.77614 15.7761 8 15.5 8H10.5C10.2239 8 10 7.77614 10 7.5ZM10 9.5C10 9.22386 10.2239 9 10.5 9H15.5C15.7761 9 16 9.22386 16 9.5C16 9.77614 15.7761 10 15.5 10H10.5C10.2239 10 10 9.77614 10 9.5ZM10.5 11C10.2239 11 10 11.2239 10 11.5C10 11.7761 10.2239 12 10.5 12H15.5C15.7761 12 16 11.7761 16 11.5C16 11.2239 15.7761 11 15.5 11H10.5ZM5.5 8C5.22386 8 5 8.22386 5 8.5V10.5C5 10.7761 5.22386 11 5.5 11H7.5C7.77614 11 8 10.7761 8 10.5V8.5C8 8.22386 7.77614 8 7.5 8H5.5Z" fill="black"/>
</svg>

<!-- Generated by IcoMoon.io -->
<svg version="1.1" xmlns="http://www.w3.org/2000/svg" width="20" height="20" viewBox="0 0 20 20">
<path d="M3.75 3c-0.967 0-1.75 0.783-1.75 1.75v9.5c0 0.967 0.783 1.75 1.75 1.75h12.5c0.967 0 1.75-0.783 1.75-1.75v-9.5c0-0.967-0.783-1.75-1.75-1.75h-12.5zM3 4.75c0-0.414 0.336-0.75 0.75-0.75h12.5c0.414 0 0.75 0.336 0.75 0.75v9.5c0 0.414-0.336 0.75-0.75 0.75h-12.5c-0.414 0-0.75-0.336-0.75-0.75v-9.5zM4 8c0-0.552 0.448-1 1-1h3c0.552 0 1 0.448 1 1v3c0 0.552-0.448 1-1 1h-3c-0.552 0-1-0.448-1-1v-3zM10 7.5c0-0.276 0.224-0.5 0.5-0.5h5c0.276 0 0.5 0.224 0.5 0.5s-0.224 0.5-0.5 0.5h-5c-0.276 0-0.5-0.224-0.5-0.5zM10 9.5c0-0.276 0.224-0.5 0.5-0.5h5c0.276 0 0.5 0.224 0.5 0.5s-0.224 0.5-0.5 0.5h-5c-0.276 0-0.5-0.224-0.5-0.5zM10.5 11c-0.276 0-0.5 0.224-0.5 0.5s0.224 0.5 0.5 0.5h5c0.276 0 0.5-0.224 0.5-0.5s-0.224-0.5-0.5-0.5h-5zM5.5 8c-0.276 0-0.5 0.224-0.5 0.5v2c0 0.276 0.224 0.5 0.5 0.5h2c0.276 0 0.5-0.224 0.5-0.5v-2c0-0.276-0.224-0.5-0.5-0.5h-2z"></path>
</svg>
